pldoc/static/images/icons/home.svg

<?xml version="1.0" encoding="utf-8"?>
<!-- Generated by IcoMoon.io -->
<!DOCTYPE svg PUBLIC "-//W3C//DTD SVG 1.1//EN" "http://www.w3.org/Graphics/SVG/1.1/DTD/svg11.dtd">
<svg version="1.1" xmlns="http://www.w3.org/2000/svg" xmlns:xlink="http://www.w3.org/1999/xlink" width="13" height="14" viewBox="0 0 13 14">
<path fill="#444444" d="M11 7.75v3.75q0 0.203-0.148 0.352t-0.352 0.148h-3v-3h-2v3h-3q-0.203 0-0.352-0.148t-0.148-0.352v-3.75q0-0.008 0.004-0.023t0.004-0.023l4.492-3.703 4.492 3.703q0.008 0.016 0.008 0.047zM12.742 7.211l-0.484 0.578q-0.062 0.070-0.164 0.086h-0.023q-0.102 0-0.164-0.055l-5.406-4.508-5.406 4.508q-0.094 0.062-0.187 0.055-0.102-0.016-0.164-0.086l-0.484-0.578q-0.062-0.078-0.055-0.184t0.086-0.168l5.617-4.68q0.25-0.203 0.594-0.203t0.594 0.203l1.906 1.594v-1.523q0-0.109 0.070-0.18t0.18-0.070h1.5q0.109 0 0.18 0.070t0.070 0.18v3.188l1.711 1.422q0.078 0.062 0.086 0.168t-0.055 0.184z"></path>
</svg>

<svg xmlns="http://www.w3.org/2000/svg" width="13" height="14" viewBox="0 0 13 14"><path fill="#444" d="M11 7.75v3.75q0 .203-.148.352T10.5 12h-3V9h-2v3h-3q-.203 0-.352-.148T2 11.5V7.75q0-.008.004-.023t.004-.023L6.5 4l4.492 3.704Q11 7.72 11 7.75zm1.742-.54l-.484.58q-.062.07-.164.085h-.023q-.1 0-.162-.055L6.5 3.312 1.096 7.82Q1 7.882.908 7.875.806 7.86.744 7.79L.26 7.21q-.062-.077-.055-.183T.29 6.86l5.62-4.68q.25-.204.594-.204t.594.203L9.004 3.77V2.25q0-.11.07-.18t.18-.07h1.5q.11 0 .18.07t.07.18v3.188l1.71 1.422q.08.062.087.168t-.055.184z"/></svg>
